X: 33
I: linebreak $
T: Goddesses
T: longways for four couples
P: AA BB x 11
C: 
K: A minor
M: 2/2
L: 1/4
P: A
 |: "Am"AA cB/A/ | "G"BB dA/B/ | "Am"AA cB/A/ | e"E"e e2 :: 
P: B
"C"ge c3/e/ | "G"dB G3/B/ | 
"Am"cA "Em"G3/B/ | "Am"AA A2 :| 

